X:1
T:Title
%%score { ( 1 4 ) | ( 2 3 ) }
L:1/8
M:4/4
K:A
V:1 treble nm="Grand Piano"
V:4 treble 
V:2 bass 
V:3 bass 
V:1
 z4 z2[Q:1/4=100] [Ec][DB] | [CA]2 [CA]2 [DG]2 [DF]2 | [CE]2 [CEA]4 [CEA][CEA] | B2 B2 G2 E2 | %4
 c6 cB | A2 A2 B2 c2 | [Fd]2 [DF]4 [FA][FB] | c2 A2 B2 G2 | [CEA]4- [CEA]AGA | B2 B2 G2 E2 | %10
 c2 A2- AAGA | B2 B2 G2 E2 | c6 cd | e2 c2 B2 A2 | [FB]2 [DF]2- [DF][FA][EG]F | E2 d2 c2 B2 | %16
[M:3/4] [A,CA]6 |[M:1/4] [EG][FA] |[M:4/4] [GB]4 [B,EG]2 [G,E]2 | [Ec]4 [CEA]2 [CEA][EG] | %20
 [DF]4 z2 [EA]2 |[M:5/8] [GB]-[GB]- [GB]3 |[M:3/8] GAB |[M:4/4] c2 c2 [DB]2 A2 | [Fd]6 z2 | %25
 AEAd c2 B2 |[M:3/4] [CEA]6 |] %27
V:2
 z4 z2 [A,,A,][A,,A,] | [A,,E,]2 [A,,E,]2 [A,,A,]2 [A,,A,]2 | [A,,A,]2 A,,4 A,,A,, | %3
 [E,DE]2 [E,DE]2 [E,B,E]2 [E,G,]2 | [A,E]6 [A,E][A,D] | [A,C]2 [A,C]2 [A,D]2 [A,E]2 | %6
 [D,A,]2 [D,A,]4 [D,D][D,D] | [E,A,E]2 [E,CE]2 [E,DE]2 [E,DE]2 | A,,4- A,,[A,CE][B,E][A,CE] | %9
 [E,DE]2 [E,DE]2 [E,B,E]2 [E,G,]2 | [A,E]2 [A,CE]2- [A,CE][A,CE][B,E][A,CE] | %11
 [E,DE]2 [E,DE]2 [E,B,E]2 [E,G,]2 | [A,E]6 [A,E][A,B,E] | [A,CA]2 [A,EA]2[K:bass] [A,DE]2 [A,CE]2 | %14
 [D,D]2 [D,A,]2- [D,A,][D,D][D,D][D,A,D] | [E,A,C]2 [E,G,E]2 [E,G,E]2 [E,G,D]2 |[M:3/4] A,,6 | %17
[M:1/4] E,E, |[M:4/4] E,4 D,2 B,,2 | [A,,A,]4 A,,2 z B, | D,D,D,D, B,,2 A,,A,, | %21
[M:5/8] E,2 E,2 E, |[M:3/8] [E,B,E][F,B,E][K:treble][G,B,E] |[M:4/4] E2 E2 z2 C2 | %24
 [D,A,]2 D,2 D,2 [D,A,][D,D] | [E,CE][E,A,C][E,CE][E,B,E] [E,A,E]2 [E,DE]2 |[M:3/4] A,,6 |] %27
V:3
 x8 | x8 | x8 | x8 | x8 | x8 | x8 | x8 | x8 | x8 | x8 | x8 | x8 | x4[K:bass] x4 | x8 | x8 | %16
[M:3/4] x6 |[M:1/4] x2 |[M:4/4] x8 | z4 z2 C,2 | x8 |[M:5/8] x5 |[M:3/8] x2[K:treble] x | %23
[M:4/4] A,4 A,4 | x8 | x8 |[M:3/4] x6 |] %27
V:4
 x8 | x8 | x8 | x8 | x8 | x8 | x8 | x8 | x8 | x8 | x8 | x8 | x8 | x8 | x8 | x8 |[M:3/4] x6 | %17
[M:1/4] x2 |[M:4/4] x8 | x8 | A,A,A,A, [B,EG]2 CC |[M:5/8] E2 E2 E |[M:3/8] x3 |[M:4/4] x8 | %24
 z2 A,2 A,2 [Fc][FB] | x8 |[M:3/4] x6 |] %27

